X:52
T:Murphy's Hornpipe
R:hornpipe
Z:id:hn-hornpipe-52
M:C|
K:G
(3DEF|GABG EFGE|ABcA FGAF|GBdg ecAG|FGAF DEFD|
GABG EFGE|ABcA FGAF|GBdg ecAF|G2GF G2:|
|:Bc|dedc Bcd2|efed ^cdef|~g3d ecAG|FGAF DEFD|
GABG EFGE|ABcA FGAF|GBdg ecAF|G2GF G2:|

